X:1
T: Chandler's Hornpipe
C:
R:Reel
Q: 232
K:C
M:4/4
L:1/8
|:GF|EG ce g2 GE|FA cf a2 g^f|ge cB ce ge|f2 d2 d2 GF|
EG ce g2 GE|FA cf a2 g^f|ge cB ce ge|1d2 c2 c2:|2d2 c2 ce fg|
|:aA cf a2 ba|gG ce g4|BG Bd ba fd|cB cd e1/2e1/2e fg|
aA cf a2 ba|gG ce g2 ag|^fg ba g=f ed|1c2 e2 ce fg:|2c2 e2 c2||
